assets/layers/bike_parking/staple.svg

<?xml version="1.0" encoding="utf-8"?>
<!-- Generator: Adobe Illustrator 24.2.1, SVG Export Plug-In . SVG Version: 6.00 Build 0)  -->
<svg version="1.1" xmlns="http://www.w3.org/2000/svg" x="0px" y="0px"
     viewBox="0 0 300 300" style="enable-background:new 0 0 300 300;" xml:space="preserve">
<style type="text/css">
	.st0{fill:#0181C2;}
	.st1{fill:#020203;}
	.st2{fill:none;stroke:#000000;stroke-width:4.6057;}
	.st3{fill:none;stroke:#000000;stroke-width:2.3029;}
	.st4{fill:#FFFFFF;stroke:#000000;stroke-width:4;stroke-miterlimit:10;}
	.st5{fill:#E74436;}
	.st6{fill:#FCC407;}
	.st7{fill:#0682C2;}
	.st8{fill:#73B254;}
	.st9{fill:#FFFFFF;stroke:#000000;stroke-width:7.155;stroke-miterlimit:10;}
	.st10{fill:#FFFFFF;stroke:#000000;stroke-width:7.7355;stroke-miterlimit:10;}
	.st11{fill:none;stroke:#010202;stroke-width:4;stroke-miterlimit:10;}
	.st12{fill:none;stroke:#000000;stroke-width:4;stroke-miterlimit:10;}
</style>
    <g id="Laag_1">
</g>
    <g id="Isolatiemodus">
</g>
    <g id="Capa_1">
	<path class="st9" d="M175.8,63.9c-3.1-2.3-7.2-2.2-8.2-2.2c-3.4,0.1-14.5,0-30.9,0c-8.1,0-16.2-0.1-24.3-0.1c-2.9,0-7.8,0-10.6,0
		c-14.6,0-25.6,0.1-30.9,0.1c-1.3,0-5.2-0.1-8.2,2.2c-3.8,2.9-3.3,6.9-3.3,7.3c0,39.4,0,78.7,0,118.1c3.7-0.1,7.5-0.1,11.2-0.2
		c-0.1-61.3,0-106.2,0.4-110.4c0.1-0.7,0.2-2.8,1.8-4.2c1.6-1.4,3.8-1.5,4.7-1.5c4.5-0.1,37.8-0.1,83.5,0c1.4,0,3.3,0.2,4.7,1.5
		c1.5,1.4,1.7,3.5,1.8,4.2c0.3,4.2,0.5,49.1,0.4,110.4c3.7,0.1,7.5,0.1,11.2,0.2c0-39.4,0-78.7,0-118.1
		C179.1,70.8,179.5,66.8,175.8,63.9z"/>
        <path class="st9" d="M203.3,92.4c-3.1-2.3-7.2-2.2-8.2-2.2c-3.4,0.1-14.5,0-30.9,0c-8.1,0-16.2-0.1-24.3-0.1c-2.9,0-7.8,0-10.6,0
		c-14.6,0-25.6,0.1-30.9,0.1c-1.3,0-5.2-0.1-8.2,2.2c-3.8,2.9-3.3,6.9-3.3,7.3c0,39.4,0,78.7,0,118.1c3.7-0.1,7.5-0.1,11.2-0.2
		c-0.1-61.3,0-106.2,0.4-110.4c0.1-0.7,0.2-2.8,1.8-4.2c1.6-1.4,3.8-1.5,4.7-1.5c4.5-0.1,37.8-0.1,83.5,0c1.4,0,3.3,0.2,4.7,1.5
		c1.5,1.4,1.7,3.5,1.8,4.2c0.3,4.2,0.5,49.1,0.4,110.4c3.7,0.1,7.5,0.1,11.2,0.2c0-39.4,0-78.7,0-118.1
		C206.7,99.3,207.1,95.3,203.3,92.4z"/>
        <path class="st9" d="M231.1,122.4c-3.1-2.3-7.2-2.2-8.2-2.2c-3.4,0.1-14.5,0-30.9,0c-8.1,0-16.2-0.1-24.3-0.1c-2.9,0-7.8,0-10.6,0
		c-14.6,0-25.6,0.1-30.9,0.1c-1.3,0-5.2-0.1-8.2,2.2c-3.8,2.9-3.3,6.9-3.3,7.3c0,39.4,0,78.7,0,118.1c3.7-0.1,7.5-0.1,11.2-0.2
		c-0.1-61.3,0-106.2,0.4-110.4c0.1-0.7,0.2-2.8,1.8-4.2c1.6-1.4,3.8-1.5,4.7-1.5c4.5-0.1,37.8-0.1,83.5,0c1.4,0,3.3,0.2,4.7,1.5
		c1.5,1.4,1.7,3.5,1.8,4.2c0.3,4.2,0.5,49.1,0.4,110.4c3.7,0.1,7.5,0.1,11.2,0.2c0-39.4,0-78.7,0-118.1
		C234.4,129.3,234.9,125.3,231.1,122.4z"/>
</g>
</svg>

<?xml version="1.0" encoding="UTF-8" standalone="yes"?>
<svg xmlns="http://www.w3.org/2000/svg" xmlns:xlink="http://www.w3.org/1999/xlink" width="375px" height="375px" viewBox="0 0 375 375" version="1.1">
  <g id="surface1">
    <path style="fill-rule:nonzero;fill:rgb(100%,100%,100%);fill-opacity:1;stroke-width:7.155;stroke-linecap:butt;stroke-linejoin:miter;stroke:rgb(0%,0%,0%);stroke-opacity:1;stroke-miterlimit:10;" d="M 175.8 63.9 C 172.7 61.6 168.6 61.7 167.6 61.7 C 164.2 61.8 153.1 61.7 136.7 61.7 C 128.6 61.7 120.5 61.6 112.4 61.6 C 109.5 61.6 104.6 61.6 101.8 61.6 C 87.2 61.6 76.2 61.7 70.9 61.7 C 69.6 61.7 65.7 61.6 62.7 63.9 C 58.9 66.8 59.4 70.8 59.4 71.2 C 59.4 110.6 59.4 149.9 59.4 189.3 C 63.1 189.2 66.9 189.2 70.6 189.1 C 70.5 127.8 70.6 82.9 71 78.7 C 71.1 78 71.2 75.9 72.8 74.5 C 74.4 73.1 76.6 73 77.5 73 C 82 72.9 115.3 72.9 161 73 C 162.4 73 164.3 73.2 165.7 74.5 C 167.2 75.9 167.4 78 167.5 78.7 C 167.8 82.9 168 127.8 167.9 189.1 C 171.6 189.2 175.4 189.2 179.1 189.3 C 179.1 149.9 179.1 110.6 179.1 71.2 C 179.1 70.8 179.5 66.8 175.8 63.9 Z M 175.8 63.9 " transform="matrix(1.25,0,0,1.25,0,0)"/>
    <path style="fill-rule:nonzero;fill:rgb(100%,100%,100%);fill-opacity:1;stroke-width:7.155;stroke-linecap:butt;stroke-linejoin:miter;stroke:rgb(0%,0%,0%);stroke-opacity:1;stroke-miterlimit:10;" d="M 203.3 92.4 C 200.2 90.1 196.1 90.2 195.1 90.2 C 191.7 90.3 180.6 90.2 164.2 90.2 C 156.1 90.2 148 90.1 139.9 90.1 C 137 90.1 132.1 90.1 129.3 90.1 C 114.7 90.1 103.7 90.2 98.4 90.2 C 97.1 90.2 93.2 90.1 90.2 92.4 C 86.4 95.3 86.9 99.3 86.9 99.7 C 86.9 139.1 86.9 178.4 86.9 217.8 C 90.6 217.7 94.4 217.7 98.1 217.6 C 98 156.3 98.1 111.4 98.5 107.2 C 98.6 106.5 98.7 104.4 100.3 103 C 101.9 101.6 104.1 101.5 105 101.5 C 109.5 101.4 142.8 101.4 188.5 101.5 C 189.9 101.5 191.8 101.7 193.2 103 C 194.7 104.4 194.9 106.5 195 107.2 C 195.3 111.4 195.5 156.3 195.4 217.6 C 199.1 217.7 202.9 217.7 206.6 217.8 C 206.6 178.4 206.6 139.1 206.6 99.7 C 206.7 99.3 207.1 95.3 203.3 92.4 Z M 203.3 92.4 " transform="matrix(1.25,0,0,1.25,0,0)"/>
    <path style="fill-rule:nonzero;fill:rgb(100%,100%,100%);fill-opacity:1;stroke-width:7.155;stroke-linecap:butt;stroke-linejoin:miter;stroke:rgb(0%,0%,0%);stroke-opacity:1;stroke-miterlimit:10;" d="M 231.1 122.4 C 228 120.1 223.9 120.2 222.9 120.2 C 219.5 120.3 208.4 120.2 192 120.2 C 183.9 120.2 175.8 120.1 167.7 120.1 C 164.8 120.1 159.9 120.1 157.1 120.1 C 142.5 120.1 131.5 120.2 126.2 120.2 C 124.9 120.2 121 120.1 118 122.4 C 114.2 125.3 114.7 129.3 114.7 129.7 C 114.7 169.1 114.7 208.4 114.7 247.8 C 118.4 247.7 122.2 247.7 125.9 247.6 C 125.8 186.3 125.9 141.4 126.3 137.2 C 126.4 136.5 126.5 134.4 128.1 133 C 129.7 131.6 131.9 131.5 132.8 131.5 C 137.3 131.4 170.6 131.4 216.3 131.5 C 217.7 131.5 219.6 131.7 221 133 C 222.5 134.4 222.7 136.5 222.8 137.2 C 223.1 141.4 223.3 186.3 223.2 247.6 C 226.9 247.7 230.7 247.7 234.4 247.8 C 234.4 208.4 234.4 169.1 234.4 129.7 C 234.4 129.3 234.9 125.3 231.1 122.4 Z M 231.1 122.4 " transform="matrix(1.25,0,0,1.25,0,0)"/>
  </g>
</svg>
